Carto/POI/SVG/nature-overlook_solid_24px.svg

<svg width="24" height="24" viewBox="0 0 24 24" fill="none" xmlns="http://www.w3.org/2000/svg">
<path d="M10 4H6.00003V2H10V4ZM2.00003 22H8.00003V20H2.00003V22ZM16 22H22V20H16V22ZM18 2H14V4H18V2ZM22 12.51V19H16V14H8.00003V19H2.00003V12.51C1.99746 11.8463 2.16256 11.1928 2.48003 10.61L5.50003 5H10V6H14V5H18.48L21.48 10.61C21.8114 11.1891 21.9904 11.8429 22 12.51ZM13 8H11V12H13V8Z" fill="#0F1621"/>
</svg>

<svg xmlns="http://www.w3.org/2000/svg" width="24" height="24" viewBox="0 0 24 24"><rect width="24" height="24" style="fill:none;opacity:0.11"/><path d="M10,4H6V2h4ZM2,22H8V20H2Zm14,0h6V20H16ZM18,2H14V4h4Zm4,10.51V19a0,0,0,0,1,0,0H16a0,0,0,0,1,0,0V14H8v5H2V12.51a3.94,3.94,0,0,1,.48-1.9L5.5,5H10V6h4V5h4.48s3,5.61,3,5.61A3.94,3.94,0,0,1,22,12.51ZM13,8H11v4h2Z"/></svg>
